X: 40451
T: Tom Sullivan's
R: polka
M: 2/4
K: Dmixolydian
D/E/F/G/ AB|cA AG|Ad d^c|d3e|
fd ed|cA AB|cA GE|D4:|
fd ed|cA Ad/e/|fd ed|fg a>g|
fd ed|cA AB|cA GE|D4:|

